icons/key-outline.svg

<svg xmlns="http://www.w3.org/2000/svg" width="24" height="24" viewBox="0 0 24 24">
  <path d="M15,2 C18.8659932,2 22,5.13400675 22,9 C22,12.8659932 18.8659932,16 15,16 L15,16 L13,15.999 L13,17 C13,17.5522847 12.5522847,18 12,18 L12,18 L11,18 L11,19 C11,19.5128358 10.6139598,19.9355072 10.1166211,19.9932723 L10.1166211,19.9932723 L10,20 L9,20 L9,21 C9,21.5128358 8.61395981,21.9355072 8.11662113,21.9932723 L8.11662113,21.9932723 L8,22 L3,22 C2.44771525,22 2,21.5522847 2,21 L2,21 L2,17 C2,16.734168 2.10584508,16.4792758 2.2941503,16.2916384 L2.2941503,16.2916384 L8.152,10.453 L8.13688055,10.383457 C8.06885379,10.0443971 8.02587186,9.6992831 8.00863257,9.35025438 L8.00863257,9.35025438 L8,9 C8,5.13400675 11.1340068,2 15,2 Z M15,4 C12.2385763,4 10,6.23857625 10,9 C10,9.50369389 10.0741737,9.99627349 10.2183937,10.4670285 C10.3269532,10.8213823 10.2306327,11.2067162 9.96810677,11.4683112 L9.96810677,11.4683112 L4,17.414 L4,20 L7,20 L7,19 C7,18.4871642 7.38604019,18.0644928 7.88337887,18.0067277 L7.88337887,18.0067277 L8,18 L9,18 L9,17 C9,16.4871642 9.38604019,16.0644928 9.88337887,16.0067277 L9.88337887,16.0067277 L10,16 L11,16 L11,15 C11,14.4871837 11.3860119,14.0645212 11.8833297,14.0067335 L11.8833297,14.0067335 L11.9999462,14 L14.9630602,13.999867 L15.2168896,13.9953805 C17.8776933,13.8818181 20,11.6887547 20,9 C20,6.23857625 17.7614237,4 15,4 Z M15,7 C16.1045695,7 17,7.8954305 17,9 C17,10.1045695 16.1045695,11 15,11 C13.8954305,11 13,10.1045695 13,9 C13,7.8954305 13.8954305,7 15,7 Z"/>
</svg>

<svg xmlns="http://www.w3.org/2000/svg" viewBox="0 0 24 24">
  <path d="M15 2a7 7 0 0 1 0 14h-2v1a1 1 0 0 1-1 1h-1v1a1 1 0 0 1-.88 1H9v1a1 1 0 0 1-.88 1H3a1 1 0 0 1-1-1v-4a1 1 0 0 1 .3-.7l5.85-5.85-.01-.07A7 7 0 0 1 8 9.35V9a7 7 0 0 1 7-7zm0 2a5 5 0 0 0-4.78 6.47 1 1 0 0 1-.25 1L4 17.4V20h3v-1a1 1 0 0 1 .88-1H9v-1a1 1 0 0 1 .88-1H11v-1a1 1 0 0 1 .88-1h3.34A5 5 0 0 0 15 4zm0 3a2 2 0 1 1 0 4 2 2 0 0 1 0-4z"/>
</svg>
